X:74
T:The Pigeon On The Gate (Gm)
R:Reel
S:Paddy Canny, Clare (fiddle)
D:Home tape of unknown provenance
Z:Bernie Stocks
N:As played
H:I can't make out the phrase 2nd half bars 2,6
H:Long 'F' a slide
M:4/4
K:C
|: dG(3.G.G.G dGeG | dG(3.G.G.G eGcG | F3d cF(3.F.F.F | FcBd cFAF |
dG(3.G.G.G dGeG | dG(3.G.G.G eGcG | FGAc dgeg | ^fdcA GABc :|
dg~g2 ^fgaf | gbag fagf | dc (3.A.A.c ^fcAd | cA(3.G.G.^F DcAc |
dg~g2 ^fgaf | gbag fagf | dc (3.A.A.c ^fcAd | c^FAc G2(3.A.B.c |
dg~g2 a2-b2 | (3.a.a.g ^fd cAdc | AF~F2 CFAF | CFAF cFAF |
dg~g2 ag~g2 | ^fg(3.a.a.f gbag | fagf de(3.f.f.d | cFAc GABc ||
<end>
<start>
